**kern	**kern	**kern
*staff1	*staff2	*staff3
*clefG2	*clefG2	*clefF4
*k[f#]	*k[f#]	*k[f#]
*met(c)	*met(c)	*met(c)
*M4/4	*M4/4	*M4/4
*tb16	*tb16	*tb16
8d/	8d/	8r
4g/	4B/	4G\
4b\	4d/	4G\
=1	=1	=1
4.e/	4.c/	4.C/
8e/	8d/	8BB/
8a/	8c/L	2AA/
8e/ 8a/	8c/	.
8g#/ 8b/	8B/	.
8a/ 8cc/	8A/J	.
=2	=2	=2
4d/ 4g/	4B/	2D\
8d/L 8f#/	4A/	.
8a/J	.	.
4cc/	4r	4r
8a/L	4d/	4c\
8f#/J	.	.
=3	=3	=3
!!linebreak:original
4a/	4.d/	4B\
8g/	.	4BB/
8g/	8d/	.
8ee\	8g/L	4C/
8ee\	8g/	.
8dd\	8f#/	4D\
8cc\	8a/J	.
=4	=4	=4
4cc\	4a/	4GG/
8b\	8g/L	4r
8a/ 8dd/	8f#/J	.
4g/ 4dd/	4.e/	2r
(8cc#\	.	.
8f#/ 8b/	8d/	.
=5	=5	=5
!!linebreak:original
8e/) 8a/	8c#/L	2r
8c#/ 8g/	8A#/	.
8d/L 8f#/	8B/	.
8d/J 8b/	8G/J	.
(4d/	4An/	4AA/ 4F#/
8c#/) 8f#/	4A/	4AA\ 4G\
8e/	.	.
=6	=6	=6
4d/	2r	8D\L
.	.	8d\
8r	.	8A\
8a/	.	8F#\J
4a/ 4dd/	4f#/	4D\
4a/ 4dd/	4fn/	4BB/
=7	=7	=7
4a/ 4dd/	4.e/	4.E\
8g#/L 8b/	.	.
8e/J 8g#/	4e/	8d\
8a/	.	8c\L
8g#/	8e/L	8d\
8a/	8e/	8c\
8b/	8g#/J	8B\J
=8	=8	=8
!!pagebreak:original
8b\L	8g#/L	4A\
8cc\J	8a/J	.
8cc\	4a/	4AA/
8a\	.	.
4a/ 4ee/	4e/	4C/
4a/ 4ee/	4f#/	4C/
=9	=9	=9
(8dd\L	2g/	2BB/
[8gg\J	.	.
8gg\])	.	.
16ff#\LL	.	.
16ee\JJ	.	.
8dd\	4g/	4AA/
8dd#\	.	.
8ee\	4f#/	4D\
8a/ 8cc/	.	.
=10	=10	=10
!!linebreak:original
8a/L 8cc/	8f#/L	2GG/
8g/J 8b/	8g/J	.
8g/ 8b/	4g/	.
8b\	.	.
8ee\	4.e/	4.C/
8cc\	.	.
8b\	.	.
8a/	8e/	8c\
=11	=11	=11
8g#/	4fn/	8d\
8r	.	8r
8a/	4e/	8c\
8r	.	8r
8b\	4d/	8B\
8r	.	8r
8cc\	4c/	4A\
8r	.	.
=12	=12	=12
!!linebreak:original
4d/ 4g/	4.A/	4.C/
8f#/	.	.
8dd\	8d/	8BB/
8cc\	2fn/	2D\
8b\	.	.
8a/L	.	.
8g#/J	.	.
=13	=13	=13
16b/LL	4e/	4C/
16a/	.	.
16g#/	.	.
16a/JJ	.	.
8b/L	8d/L	8BB/L
8cc/J	8c/J	8AA/J
4gn/	4d/	4D\
8f#/L 8b/	4d/	4D\
8a/J	.	.
=14	=14	=14
4d/ 4g/	4B/	4GG/
4r	4r	4r
==	==	==
*-	*-	*-
